symbolic/24x24/apps/wps-office-etmain.svg

<svg xmlns="http://www.w3.org/2000/svg" width="24" height="24" version="1">
 <rect style="opacity:0.2" width="20" height="20" x="2" y="2.5" rx="1" ry="1"/>
 <rect style="fill:#46b146" width="20" height="20" x="2" y="2" rx="1" ry="1"/>
 <path style="opacity:0.2;fill:#ffffff" d="M 2,3.5 V 3 C 2,2.446 2.446,2 3,2 h 18 c 0.554,0 1,0.446 1,1 v 0.5 c 0,-0.554 -0.446,-1 -1,-1 H 3 c -0.554,0 -1,0.446 -1,1 z"/>
 <path style="opacity:0.2;fill:none;stroke:#000000;stroke-width:2;stroke-linecap:round;stroke-linejoin:round" d="m 7.007121,17.500367 h 7 c 0,0 3,0.249999 3,-2.5 0,-2.75 -3,-2.500464 -3,-2.500464 H 11.107 M 16.992878,7.4932948 H 9.9928785 c 0,0 -3,-0.242929 -3,2.5070712 0,2.750001 3,2.492466 3,2.492466 H 12.793"/>
 <path style="fill:none;stroke:#ffffff;stroke-width:2;stroke-linecap:round;stroke-linejoin:round" d="m 7.007121,17.000367 h 7 c 0,0 3,0.249999 3,-2.5 0,-2.75 -3,-2.500464 -3,-2.500464 H 11.107 M 16.992878,6.9932958 H 9.9928785 c 0,0 -3,-0.242929 -3,2.507071 0,2.7500002 3,2.4924652 3,2.4924652 H 12.793"/>
</svg>

<svg xmlns="http://www.w3.org/2000/svg" width="24" height="24" version="1"><rect style="opacity:.2" width="20" height="20" x="2" y="2.5" rx="1" ry="1"/><rect style="fill:#46b146" width="20" height="20" x="2" y="2" rx="1" ry="1"/><path style="opacity:.2;fill:#fff" d="M2 3.5V3c0-.554.446-1 1-1h18c.554 0 1 .446 1 1v.5c0-.554-.446-1-1-1H3c-.554 0-1 .446-1 1z"/><path style="opacity:.2;fill:none;stroke:#000;stroke-width:2;stroke-linecap:round;stroke-linejoin:round" d="M7.007 17.5h7s3 .25 3-2.5-3-2.5-3-2.5h-2.9m5.886-5.007h-7s-3-.243-3 2.507 3 2.493 3 2.493h2.8"/><path style="fill:none;stroke:#fff;stroke-width:2;stroke-linecap:round;stroke-linejoin:round" d="M7.007 17h7s3 .25 3-2.5-3-2.5-3-2.5h-2.9m5.886-5.007h-7s-3-.243-3 2.507 3 2.493 3 2.493h2.8"/></svg>
